icons/ai.svg

<?xml version="1.0" ?>
<svg xmlns="http://www.w3.org/2000/svg" xmlns:ev="http://www.w3.org/2001/xml-events" xmlns:xlink="http://www.w3.org/1999/xlink" baseProfile="full" height="356px" version="1.1" viewBox="-1030.2205000000001 1480.8376494589788 12299.441 7277.528144717422" width="600px">
	<defs/>
	<path d="M 10035.0,8123.0 C 10025.0,8108.0 10016.0,8084.0 10016.0,8070.0 C 10015.0,8054.0 10008.0,8044.0 9995.0,8042.0 C 9984.0,8040.0 9963.0,8027.0 9949.0,8013.0 C 9926.0,7992.0 9921.0,7976.0 9915.0,7914.0 L 9908.0,7840.0 L 9871.0,7840.0 C 9840.0,7840.0 9831.0,7835.0 9822.0,7815.0 C 9815.0,7801.0 9802.0,7790.0 9791.0,7790.0 C 9780.0,7790.0 9769.0,7786.0 9765.0,7781.0 C 9762.0,7776.0 9745.0,7768.0 9727.0,7764.0 C 9692.0,7757.0 9598.0,7696.0 9538.0,7642.0 C 9498.0,7606.0 9485.0,7555.0 9514.0,7544.0 C 9526.0,7539.0 9527.0,7533.0 9518.0,7514.0 C 9503.0,7482.0 9455.0,7474.0 9357.0,7489.0 C 9306.0,7497.0 9238.0,7499.0 9163.0,7494.0 L 9048.0,7487.0 L 8954.0,7414.0 C 8874.0,7351.0 8854.0,7340.0 8821.0,7340.0 C 8800.0,7340.0 8777.0,7334.0 8771.0,7326.0 C 8764.0,7318.0 8729.0,7302.0 8692.0,7290.0 C 8656.0,7278.0 8612.0,7256.0 8595.0,7241.0 C 8578.0,7226.0 8537.0,7203.0 8505.0,7190.0 C 8453.0,7169.0 8443.0,7168.0 8401.0,7179.0 C 8337.0,7195.0 8301.0,7239.0 8310.0,7289.0 C 8314.0,7309.0 8323.0,7337.0 8330.0,7353.0 C 8348.0,7391.0 8333.0,7405.0 8294.0,7385.0 C 8275.0,7375.0 8252.0,7372.0 8224.0,7376.0 C 8179.0,7382.0 8058.0,7351.0 8030.0,7325.0 C 8009.0,7306.0 7952.0,7283.0 7893.0,7270.0 C 7798.0,7249.0 7770.0,7239.0 7770.0,7227.0 C 7770.0,7213.0 7642.0,7142.0 7560.0,7110.0 C 7530.0,7098.0 7484.0,7075.0 7459.0,7059.0 C 7433.0,7043.0 7400.0,7030.0 7381.0,7030.0 C 7344.0,7030.0 7290.0,7066.0 7290.0,7091.0 C 7290.0,7101.0 7272.0,7130.0 7250.0,7155.0 C 7228.0,7180.0 7210.0,7211.0 7210.0,7224.0 C 7210.0,7256.0 7198.0,7264.0 7186.0,7241.0 C 7180.0,7230.0 7135.0,7188.0 7086.0,7146.0 C 6979.0,7054.0 6865.0,6997.0 6735.0,6970.0 C 6686.0,6960.0 6605.0,6935.0 6555.0,6915.0 C 6492.0,6889.0 6434.0,6874.0 6363.0,6865.0 L 6261.0,6852.0 L 6171.0,6771.0 C 6088.0,6697.0 6077.0,6690.0 6038.0,6690.0 C 5983.0,6690.0 5844.0,6632.0 5766.0,6577.0 C 5722.0,6546.0 5704.0,6526.0 5698.0,6503.0 C 5692.0,6479.0 5684.0,6470.0 5669.0,6470.0 C 5647.0,6470.0 5574.0,6436.0 5548.0,6413.0 C 5539.0,6405.0 5508.0,6386.0 5478.0,6371.0 C 5433.0,6348.0 5425.0,6339.0 5422.0,6313.0 C 5419.0,6283.0 5417.0,6282.0 5348.0,6272.0 C 5308.0,6266.0 5265.0,6253.0 5251.0,6242.0 C 5229.0,6226.0 5226.0,6217.0 5229.0,6177.0 C 5232.0,6123.0 5215.0,6108.0 5179.0,6134.0 C 5146.0,6157.0 5123.0,6138.0 5104.0,6074.0 C 5084.0,6003.0 5031.0,5960.0 4963.0,5960.0 C 4940.0,5960.0 4920.0,5956.0 4920.0,5951.0 C 4920.0,5946.0 4909.0,5928.0 4895.0,5912.0 L 4870.0,5882.0 L 4911.0,5856.0 C 4933.0,5841.0 4987.0,5795.0 5029.0,5754.0 L 5107.0,5680.0 L 5108.0,5604.0 C 5108.0,5554.0 5114.0,5521.0 5124.0,5505.0 C 5144.0,5475.0 5144.0,5454.0 5125.0,5446.0 C 5103.0,5438.0 5107.0,5422.0 5140.0,5383.0 C 5167.0,5352.0 5170.0,5343.0 5170.0,5279.0 C 5170.0,5210.0 5169.0,5209.0 5119.0,5145.0 C 5075.0,5091.0 5044.0,5067.0 4919.0,4989.0 C 4837.0,4939.0 4770.0,4892.0 4770.0,4884.0 C 4770.0,4864.0 4733.0,4845.0 4669.0,4831.0 C 4638.0,4825.0 4598.0,4808.0 4579.0,4795.0 C 4559.0,4779.0 4533.0,4770.0 4511.0,4770.0 C 4491.0,4770.0 4451.0,4759.0 4422.0,4745.0 C 4344.0,4709.0 4273.0,4690.0 4215.0,4690.0 C 4136.0,4690.0 4050.0,4635.0 3899.0,4489.0 L 3775.0,4369.0 L 3886.0,4373.0 L 3998.0,4377.0 L 4009.0,4340.0 C 4035.0,4253.0 4005.0,4047.0 3961.0,4013.0 C 3856.0,3932.0 3815.0,3923.0 3655.0,3952.0 C 3523.0,3976.0 3435.0,3972.0 3340.0,3936.0 C 3304.0,3923.0 3239.0,3907.0 3195.0,3900.0 C 3135.0,3891.0 3088.0,3876.0 3010.0,3838.0 C 2890.0,3780.0 2888.0,3780.0 2616.0,3805.0 L 2465.0,3819.0 L 2434.0,3789.0 L 2403.0,3759.0 L 2259.0,3762.0 L 2115.0,3764.0 L 2040.0,3726.0 C 1999.0,3705.0 1939.0,3670.0 1908.0,3648.0 C 1851.0,3610.0 1850.0,3609.0 1850.0,3561.0 C 1850.0,3524.0 1840.0,3494.0 1809.0,3434.0 C 1774.0,3366.0 1751.0,3339.0 1647.0,3241.0 L 1525.0,3128.0 L 1444.0,3133.0 C 1387.0,3136.0 1356.0,3134.0 1339.0,3124.0 C 1326.0,3117.0 1305.0,3111.0 1293.0,3110.0 C 1275.0,3110.0 1268.0,3101.0 1259.0,3066.0 C 1249.0,3026.0 1237.0,3012.0 1142.0,2936.0 C 1083.0,2889.0 1028.0,2850.0 1019.0,2850.0 C 994.0,2850.0 920.0,2796.0 855.0,2731.0 C 801.0,2676.0 792.0,2670.0 754.0,2670.0 C 724.0,2670.0 706.0,2676.0 689.0,2694.0 C 668.0,2715.0 659.0,2717.0 624.0,2711.0 C 602.0,2707.0 559.0,2690.0 530.0,2674.0 C 475.0,2645.0 475.0,2645.0 470.0,2590.0 C 464.0,2521.0 449.0,2500.0 383.0,2466.0 C 345.0,2447.0 330.0,2434.0 330.0,2419.0 C 330.0,2388.0 312.0,2362.0 280.0,2345.0 C 263.0,2336.0 239.0,2312.0 225.0,2290.0 C 205.0,2259.0 194.0,2250.0 171.0,2250.0 C 136.0,2250.0 80.0,2231.0 80.0,2219.0 C 80.0,2215.0 62.0,2185.0 39.0,2153.0 L -1.0,2095.0 L 69.0,2092.0 C 114.0,2090.0 156.0,2095.0 185.0,2105.0 C 210.0,2113.0 245.0,2120.0 262.0,2120.0 C 293.0,2120.0 336.0,2146.0 395.0,2201.0 C 438.0,2241.0 511.0,2251.0 536.0,2221.0 C 562.0,2191.0 577.0,2195.0 595.0,2234.0 C 618.0,2282.0 683.0,2323.0 750.0,2331.0 C 800.0,2337.0 811.0,2334.0 871.0,2302.0 C 918.0,2277.0 942.0,2256.0 956.0,2231.0 C 974.0,2198.0 979.0,2195.0 1028.0,2192.0 C 1065.0,2190.0 1080.0,2185.0 1080.0,2174.0 C 1080.0,2151.0 1130.0,2157.0 1167.0,2186.0 C 1189.0,2203.0 1200.0,2219.0 1200.0,2238.0 C 1201.0,2258.0 1217.0,2279.0 1265.0,2322.0 C 1336.0,2385.0 1381.0,2399.0 1461.0,2383.0 L 1505.0,2374.0 L 1501.0,2289.0 C 1498.0,2206.0 1499.0,2204.0 1523.0,2193.0 C 1548.0,2181.0 1549.0,2182.0 1564.0,2234.0 C 1598.0,2350.0 1625.0,2391.0 1742.0,2506.0 C 1804.0,2567.0 1865.0,2623.0 1878.0,2629.0 C 1897.0,2639.0 1921.0,2639.0 1992.0,2629.0 L 2083.0,2617.0 L 2113.0,2573.0 C 2130.0,2549.0 2149.0,2531.0 2155.0,2533.0 C 2160.0,2536.0 2191.0,2546.0 2222.0,2556.0 C 2274.0,2572.0 2280.0,2577.0 2286.0,2607.0 C 2292.0,2638.0 2295.0,2640.0 2331.0,2640.0 C 2363.0,2640.0 2372.0,2644.0 2379.0,2664.0 C 2389.0,2687.0 2501.0,2765.0 2597.0,2814.0 C 2632.0,2831.0 2665.0,2860.0 2697.0,2900.0 C 2740.0,2953.0 2752.0,2963.0 2810.0,2981.0 C 2857.0,2997.0 2910.0,3004.0 3002.0,3007.0 L 3129.0,3012.0 L 3245.0,2949.0 L 3360.0,2887.0 L 3360.0,2842.0 C 3360.0,2809.0 3367.0,2788.0 3385.0,2764.0 C 3415.0,2724.0 3417.0,2675.0 3390.0,2640.0 C 3366.0,2610.0 3365.0,2573.0 3386.0,2549.0 C 3401.0,2533.0 3407.0,2534.0 3496.0,2577.0 C 3589.0,2622.0 3592.0,2623.0 3697.0,2624.0 L 3803.0,2625.0 L 3846.0,2670.0 C 3888.0,2714.0 3889.0,2715.0 3964.0,2718.0 C 4040.0,2722.0 4040.0,2722.0 4080.0,2686.0 C 4102.0,2666.0 4126.0,2650.0 4133.0,2650.0 C 4153.0,2650.0 4180.0,2683.0 4180.0,2707.0 C 4180.0,2719.0 4186.0,2730.0 4194.0,2733.0 C 4202.0,2736.0 4210.0,2749.0 4212.0,2762.0 C 4215.0,2783.0 4222.0,2786.0 4292.0,2792.0 C 4379.0,2800.0 4430.0,2821.0 4430.0,2849.0 C 4430.0,2862.0 4440.0,2871.0 4461.0,2875.0 C 4478.0,2879.0 4494.0,2888.0 4496.0,2895.0 C 4500.0,2904.0 4527.0,2911.0 4568.0,2915.0 C 4658.0,2924.0 4689.0,2936.0 4683.0,2960.0 C 4679.0,2975.0 4690.0,2987.0 4727.0,3010.0 C 4782.0,3044.0 4814.0,3099.0 4826.0,3180.0 C 4834.0,3239.0 4878.0,3320.0 4907.0,3331.0 C 4949.0,3347.0 5018.0,3404.0 5033.0,3437.0 C 5042.0,3454.0 5052.0,3507.0 5056.0,3554.0 L 5063.0,3640.0 L 5105.0,3640.0 C 5143.0,3640.0 5178.0,3621.0 5165.0,3608.0 C 5158.0,3601.0 5156.0,3511.0 5163.0,3503.0 C 5184.0,3483.0 5296.0,3569.0 5317.0,3621.0 C 5335.0,3667.0 5364.0,3673.0 5395.0,3636.0 C 5411.0,3617.0 5428.0,3611.0 5481.0,3607.0 L 5547.0,3601.0 L 5572.0,3659.0 L 5598.0,3718.0 L 5708.0,3712.0 L 5818.0,3707.0 L 5863.0,3742.0 C 5895.0,3766.0 5928.0,3781.0 5969.0,3789.0 C 6028.0,3801.0 6030.0,3802.0 6040.0,3840.0 C 6045.0,3862.0 6055.0,3898.0 6060.0,3920.0 C 6069.0,3953.0 6075.0,3960.0 6095.0,3960.0 C 6132.0,3960.0 6156.0,3991.0 6164.0,4048.0 C 6170.0,4096.0 6172.0,4099.0 6213.0,4113.0 C 6254.0,4127.0 6259.0,4126.0 6330.0,4099.0 C 6396.0,4073.0 6406.0,4072.0 6420.0,4085.0 C 6431.0,4095.0 6458.0,4100.0 6497.0,4100.0 C 6547.0,4100.0 6569.0,4106.0 6625.0,4136.0 C 6662.0,4156.0 6701.0,4170.0 6711.0,4167.0 C 6757.0,4155.0 6795.0,4301.0 6750.0,4315.0 C 6725.0,4323.0 6724.0,4349.0 6748.0,4389.0 C 6769.0,4427.0 6816.0,4445.0 6854.0,4430.0 C 6897.0,4414.0 7019.0,4429.0 7031.0,4451.0 C 7037.0,4463.0 7052.0,4470.0 7071.0,4470.0 C 7093.0,4470.0 7130.0,4489.0 7195.0,4535.0 C 7280.0,4594.0 7293.0,4600.0 7356.0,4606.0 C 7420.0,4613.0 7429.0,4617.0 7481.0,4662.0 C 7535.0,4708.0 7539.0,4710.0 7599.0,4710.0 C 7647.0,4710.0 7673.0,4716.0 7718.0,4739.0 C 7761.0,4760.0 7782.0,4765.0 7803.0,4759.0 C 7821.0,4754.0 7840.0,4757.0 7860.0,4767.0 C 7894.0,4784.0 7896.0,4788.0 7875.0,4804.0 C 7862.0,4814.0 7862.0,4819.0 7879.0,4851.0 C 7905.0,4900.0 7897.0,4933.0 7854.0,4949.0 C 7814.0,4963.0 7813.0,4968.0 7841.0,5004.0 C 7860.0,5029.0 7861.0,5030.0 7843.0,5037.0 C 7815.0,5047.0 7810.0,5061.0 7827.0,5086.0 C 7839.0,5104.0 7848.0,5108.0 7875.0,5103.0 C 7906.0,5098.0 7911.0,5100.0 7926.0,5133.0 C 7941.0,5164.0 7948.0,5168.0 7991.0,5174.0 C 8038.0,5180.0 8040.0,5182.0 8040.0,5212.0 C 8040.0,5232.0 8049.0,5251.0 8066.0,5267.0 C 8088.0,5287.0 8091.0,5298.0 8089.0,5338.0 C 8087.0,5364.0 8090.0,5400.0 8094.0,5418.0 C 8101.0,5449.0 8104.0,5450.0 8151.0,5450.0 C 8197.0,5450.0 8201.0,5448.0 8225.0,5410.0 C 8239.0,5388.0 8257.0,5370.0 8266.0,5370.0 C 8275.0,5370.0 8304.0,5352.0 8330.0,5330.0 C 8384.0,5285.0 8400.0,5283.0 8540.0,5301.0 C 8637.0,5314.0 8675.0,5339.0 8686.0,5397.0 C 8689.0,5415.0 8702.0,5437.0 8713.0,5445.0 C 8743.0,5466.0 8809.0,5464.0 8845.0,5440.0 C 8885.0,5414.0 8927.0,5414.0 8935.0,5440.0 C 8942.0,5461.0 8988.0,5490.0 9013.0,5490.0 C 9043.0,5490.0 9041.0,5538.0 9009.0,5594.0 L 8979.0,5649.0 L 9000.0,5678.0 C 9019.0,5703.0 9031.0,5708.0 9082.0,5714.0 C 9138.0,5719.0 9144.0,5718.0 9162.0,5695.0 C 9184.0,5666.0 9212.0,5663.0 9231.0,5686.0 C 9252.0,5712.0 9254.0,5910.0 9233.0,5932.0 C 9219.0,5947.0 9219.0,5956.0 9229.0,5991.0 C 9236.0,6013.0 9243.0,6065.0 9245.0,6105.0 C 9247.0,6146.0 9251.0,6184.0 9254.0,6189.0 C 9257.0,6194.0 9277.0,6201.0 9297.0,6205.0 C 9318.0,6208.0 9351.0,6222.0 9371.0,6235.0 C 9395.0,6250.0 9411.0,6255.0 9421.0,6249.0 C 9446.0,6233.0 9450.0,6239.0 9450.0,6288.0 C 9450.0,6325.0 9454.0,6338.0 9471.0,6348.0 C 9482.0,6355.0 9498.0,6376.0 9506.0,6395.0 C 9519.0,6427.0 9518.0,6433.0 9492.0,6487.0 C 9477.0,6519.0 9457.0,6546.0 9447.0,6548.0 C 9438.0,6550.0 9416.0,6538.0 9399.0,6521.0 C 9382.0,6504.0 9366.0,6490.0 9364.0,6490.0 C 9361.0,6490.0 9331.0,6511.0 9297.0,6538.0 C 9263.0,6564.0 9224.0,6592.0 9210.0,6601.0 C 9189.0,6615.0 9185.0,6626.0 9182.0,6686.0 C 9179.0,6739.0 9183.0,6766.0 9198.0,6802.0 C 9221.0,6855.0 9246.0,6872.0 9310.0,6880.0 L 9355.0,6885.0 L 9362.0,6935.0 C 9367.0,6972.0 9376.0,6989.0 9394.0,7003.0 C 9409.0,7013.0 9420.0,7029.0 9420.0,7038.0 C 9420.0,7061.0 9467.0,7110.0 9488.0,7110.0 C 9497.0,7110.0 9520.0,7119.0 9539.0,7131.0 C 9558.0,7142.0 9599.0,7154.0 9629.0,7157.0 C 9660.0,7160.0 9692.0,7168.0 9700.0,7176.0 C 9708.0,7183.0 9727.0,7192.0 9743.0,7195.0 C 9763.0,7200.0 9770.0,7208.0 9770.0,7225.0 C 9770.0,7266.0 9788.0,7297.0 9814.0,7304.0 C 9836.0,7309.0 9839.0,7315.0 9834.0,7334.0 C 9827.0,7365.0 9852.0,7413.0 9889.0,7439.0 C 9928.0,7467.0 9956.0,7515.0 9965.0,7568.0 L 9972.0,7610.0 L 10056.0,7610.0 C 10107.0,7610.0 10140.0,7614.0 10140.0,7620.0 C 10140.0,7626.0 10151.0,7635.0 10165.0,7640.0 C 10194.0,7651.0 10199.0,7680.0 10172.0,7680.0 C 10162.0,7680.0 10144.0,7687.0 10131.0,7696.0 C 10111.0,7710.0 10109.0,7718.0 10115.0,7756.0 C 10119.0,7787.0 10118.0,7800.0 10109.0,7800.0 C 10100.0,7800.0 10099.0,7817.0 10103.0,7863.0 C 10109.0,7918.0 10114.0,7929.0 10144.0,7955.0 C 10163.0,7972.0 10182.0,7999.0 10186.0,8015.0 C 10190.0,8032.0 10204.0,8059.0 10217.0,8076.0 C 10229.0,8093.0 10240.0,8112.0 10240.0,8118.0 C 10240.0,8131.0 10236.0,8132.0 10165.0,8135.0 C 10138.0,8137.0 10101.0,8141.0 10084.0,8145.0 C 10058.0,8151.0 10051.0,8148.0 10035.0,8123.0" fill="pink"/>
</svg>

<?xml version="1.0" standalone="no"?>
<!DOCTYPE svg PUBLIC "-//W3C//DTD SVG 20010904//EN"
 "http://www.w3.org/TR/2001/REC-SVG-20010904/DTD/svg10.dtd">
<svg version="1.0" xmlns="http://www.w3.org/2000/svg"
 width="1024.000000pt" height="1024.000000pt" viewBox="0 0 1024.000000 1024.000000"
 preserveAspectRatio="xMidYMid meet">
<metadata>
Created by potrace 1.10, written by Peter Selinger 2001-2011
</metadata>
<g transform="translate(0.000000,1024.000000) scale(0.100000,-0.100000)"
fill="#000000" stroke="none">
<path d="M10035 8123 c-10 -15 -19 -39 -19 -53 -1 -16 -8 -26 -21 -28 -11 -2
-32 -15 -46 -29 -23 -21 -28 -37 -34 -99 l-7 -74 -37 0 c-31 0 -40 -5 -49 -25
-7 -14 -20 -25 -31 -25 -11 0 -22 -4 -26 -9 -3 -5 -20 -13 -38 -17 -35 -7
-129 -68 -189 -122 -40 -36 -53 -87 -24 -98 12 -5 13 -11 4 -30 -15 -32 -63
-40 -161 -25 -51 8 -119 10 -194 5 l-115 -7 -94 -73 c-80 -63 -100 -74 -133
-74 -21 0 -44 -6 -50 -14 -7 -8 -42 -24 -79 -36 -36 -12 -80 -34 -97 -49 -17
-15 -58 -38 -90 -51 -52 -21 -62 -22 -104 -11 -64 16 -100 60 -91 110 4 20 13
48 20 64 18 38 3 52 -36 32 -19 -10 -42 -13 -70 -9 -45 6 -166 -25 -194 -51
-21 -19 -78 -42 -137 -55 -95 -21 -123 -31 -123 -43 0 -14 -128 -85 -210 -117
-30 -12 -76 -35 -101 -51 -26 -16 -59 -29 -78 -29 -37 0 -91 36 -91 61 0 10
-18 39 -40 64 -22 25 -40 56 -40 69 0 32 -12 40 -24 17 -6 -11 -51 -53 -100
-95 -107 -92 -221 -149 -351 -176 -49 -10 -130 -35 -180 -55 -63 -26 -121 -41
-192 -50 l-102 -13 -90 -81 c-83 -74 -94 -81 -133 -81 -55 0 -194 -58 -272
-113 -44 -31 -62 -51 -68 -74 -6 -24 -14 -33 -29 -33 -22 0 -95 -34 -121 -57
-9 -8 -40 -27 -70 -42 -45 -23 -53 -32 -56 -58 -3 -30 -5 -31 -74 -41 -40 -6
-83 -19 -97 -30 -22 -16 -25 -25 -22 -65 3 -54 -14 -69 -50 -43 -33 23 -56 4
-75 -60 -20 -71 -73 -114 -141 -114 -23 0 -43 -4 -43 -9 0 -5 -11 -23 -25 -39
l-25 -30 41 -26 c22 -15 76 -61 118 -102 l78 -74 1 -76 c0 -50 6 -83 16 -99
20 -30 20 -51 1 -59 -22 -8 -18 -24 15 -63 27 -31 30 -40 30 -104 0 -69 -1
-70 -51 -134 -44 -54 -75 -78 -200 -156 -82 -50 -149 -97 -149 -105 0 -20 -37
-39 -101 -53 -31 -6 -71 -23 -90 -36 -20 -16 -46 -25 -68 -25 -20 0 -60 -11
-89 -25 -78 -36 -149 -55 -207 -55 -79 0 -165 -55 -316 -201 l-124 -120 111 4
112 4 11 -37 c26 -87 -4 -293 -48 -327 -105 -81 -146 -90 -306 -61 -132 24
-220 20 -315 -16 -36 -13 -101 -29 -145 -36 -60 -9 -107 -24 -185 -62 -120
-58 -122 -58 -394 -33 l-151 14 -31 -30 -31 -30 -144 3 -144 2 -75 -38 c-41
-21 -101 -56 -132 -78 -57 -38 -58 -39 -58 -87 0 -37 -10 -67 -41 -127 -35
-68 -58 -95 -162 -193 l-122 -113 -81 5 c-57 3 -88 1 -105 -9 -13 -7 -34 -13
-46 -14 -18 0 -25 -9 -34 -44 -10 -40 -22 -54 -117 -130 -59 -47 -114 -86
-123 -86 -25 0 -99 -54 -164 -119 -54 -55 -63 -61 -101 -61 -30 0 -48 6 -65
24 -21 21 -30 23 -65 17 -22 -4 -65 -21 -94 -37 -55 -29 -55 -29 -60 -84 -6
-69 -21 -90 -87 -124 -38 -19 -53 -32 -53 -47 0 -31 -18 -57 -50 -74 -17 -9
-41 -33 -55 -55 -20 -31 -31 -40 -54 -40 -35 0 -91 -19 -91 -31 0 -4 -18 -34
-41 -66 l-40 -58 70 -3 c45 -2 87 3 116 13 25 8 60 15 77 15 31 0 74 26 133
81 43 40 116 50 141 20 26 -30 41 -26 59 13 23 48 88 89 155 97 50 6 61 3 121
-29 47 -25 71 -46 85 -71 18 -33 23 -36 72 -39 37 -2 52 -7 52 -18 0 -23 50
-17 87 12 22 17 33 33 33 52 1 20 17 41 65 84 71 63 116 77 196 61 l44 -9 -4
-85 c-3 -83 -2 -85 22 -96 25 -12 26 -11 41 41 34 116 61 157 178 272 62 61
123 117 136 123 19 10 43 10 114 0 l91 -12 30 -44 c17 -24 36 -42 42 -40 5 3
36 13 67 23 52 16 58 21 64 51 6 31 9 33 45 33 32 0 41 4 48 24 10 23 122 101
218 150 35 17 68 46 100 86 43 53 55 63 113 81 47 16 100 23 192 26 l127 5
116 -63 115 -62 0 -45 c0 -33 7 -54 25 -78 30 -40 32 -89 5 -124 -24 -30 -25
-67 -4 -91 15 -16 21 -15 110 28 93 45 96 46 201 47 l106 1 43 45 c42 44 43
45 118 48 76 4 76 4 116 -32 22 -20 46 -36 53 -36 20 0 47 33 47 57 0 12 6 23
14 26 8 3 16 16 18 29 3 21 10 24 80 30 87 8 138 29 138 57 0 13 10 22 31 26
17 4 33 13 35 20 4 9 31 16 72 20 90 9 121 21 115 45 -4 15 7 27 44 50 55 34
87 89 99 170 8 59 52 140 81 151 42 16 111 73 126 106 9 17 19 70 23 117 l7
86 42 0 c38 0 73 -19 60 -32 -7 -7 -9 -97 -2 -105 21 -20 133 66 154 118 18
46 47 52 78 15 16 -19 33 -25 86 -29 l66 -6 25 58 26 59 110 -6 110 -5 45 35
c32 24 65 39 106 47 59 12 61 13 71 51 5 22 15 58 20 80 9 33 15 40 35 40 37
0 61 31 69 88 6 48 8 51 49 65 41 14 46 13 117 -14 66 -26 76 -27 90 -14 11
10 38 15 77 15 50 0 72 6 128 36 37 20 76 34 86 31 46 -12 84 134 39 148 -25
8 -26 34 -2 74 21 38 68 56 106 41 43 -16 165 -1 177 21 6 12 21 19 40 19 22
0 59 19 124 65 85 59 98 65 161 71 64 7 73 11 125 56 54 46 58 48 118 48 48 0
74 6 119 29 43 21 64 26 85 20 18 -5 37 -2 57 8 34 17 36 21 15 37 -13 10 -13
15 4 47 26 49 18 82 -25 98 -40 14 -41 19 -13 55 19 25 20 26 2 33 -28 10 -33
24 -16 49 12 18 21 22 48 17 31 -5 36 -3 51 30 15 31 22 35 65 41 47 6 49 8
49 38 0 20 9 39 26 55 22 20 25 31 23 71 -2 26 1 62 5 80 7 31 10 32 57 32 46
0 50 -2 74 -40 14 -22 32 -40 41 -40 9 0 38 -18 64 -40 54 -45 70 -47 210 -29
97 13 135 38 146 96 3 18 16 40 27 48 30 21 96 19 132 -5 40 -26 82 -26 90 0
7 21 53 50 78 50 30 0 28 48 -4 104 l-30 55 21 29 c19 25 31 30 82 36 56 5 62
4 80 -19 22 -29 50 -32 69 -9 21 26 23 224 2 246 -14 15 -14 24 -4 59 7 22 14
74 16 114 2 41 6 79 9 84 3 5 23 12 43 16 21 3 54 17 74 30 24 15 40 20 50 14
25 -16 29 -10 29 39 0 37 4 50 21 60 11 7 27 28 35 47 13 32 12 38 -14 92 -15
32 -35 59 -45 61 -9 2 -31 -10 -48 -27 -17 -17 -33 -31 -35 -31 -3 0 -33 21
-67 48 -34 26 -73 54 -87 63 -21 14 -25 25 -28 85 -3 53 1 80 16 116 23 53 48
70 112 78 l45 5 7 50 c5 37 14 54 32 68 15 10 26 26 26 35 0 23 47 72 68 72 9
0 32 9 51 21 19 11 60 23 90 26 31 3 63 11 71 19 8 7 27 16 43 19 20 5 27 13
27 30 0 41 18 72 44 79 22 5 25 11 20 30 -7 31 18 79 55 105 39 28 67 76 76
129 l7 42 84 0 c51 0 84 4 84 10 0 6 11 15 25 20 29 11 34 40 7 40 -10 0 -28
7 -41 16 -20 14 -22 22 -16 60 4 31 3 44 -6 44 -9 0 -10 17 -6 63 6 55 11 66
41 92 19 17 38 44 42 60 4 17 18 44 31 61 12 17 23 36 23 42 0 13 -4 14 -75
17 -27 2 -64 6 -81 10 -26 6 -33 3 -49 -22z"/>
</g>
</svg>
